app/client/src/assets/icons/blueprintjs/20px/ship.svg

<svg width="20" height="20" viewBox="0 0 20 20" fill="none" xmlns="http://www.w3.org/2000/svg">
<path fill-rule="evenodd" clip-rule="evenodd" d="M6.83921 0.803884L6.49999 2.5H3.5C2.94771 2.5 2.5 2.94772 2.5 3.5V8.39286L0.92067 8.84409C0.40586 8.99118 0.0977543 9.51729 0.228858 10.0364C0.688546 11.8565 1.39157 14.3923 1.92996 15.6074C1.71172 15.6189 1.48512 15.625 1.25 15.625C0.904819 15.625 0.624997 15.9048 0.624997 16.25C0.624997 16.5952 0.904819 16.875 1.25 16.875C3.83329 16.875 5.5179 16.1957 6.45161 15.7293C7.13903 16.1952 8.33282 16.875 10 16.875C11.6505 16.875 12.837 16.2087 13.5276 15.7433L13.533 15.7462C13.7772 15.8771 14.1337 16.0462 14.6023 16.2136C15.5406 16.5487 16.924 16.875 18.75 16.875C19.0952 16.875 19.375 16.5952 19.375 16.25C19.375 15.9048 19.0952 15.625 18.75 15.625C18.4267 15.625 18.1196 15.6139 17.8285 15.5938C17.9082 15.4984 17.9714 15.3862 18.012 15.2604L19.6819 10.0918C19.8558 9.55353 19.5489 8.97827 19.005 8.82286L17.5 8.39286V3.5C17.5 2.94772 17.0523 2.5 16.5 2.5H13.5L13.1608 0.803884C13.0673 0.33646 12.6569 0 12.1802 0H7.81979C7.34311 0 6.9327 0.33646 6.83921 0.803884ZM5 7.67857L8.75 6.60714V5H5V7.67857ZM11.25 6.60714L15 7.67857V5H11.25V6.60714ZM6.20486 16.9491C6.41451 16.8368 6.66973 16.8532 6.86327 16.9914C7.43197 17.3976 8.45968 18.125 10 18.125C11.5403 18.125 12.568 17.3976 13.1367 16.9914C13.3532 16.8368 13.6437 16.8362 13.8608 16.9896L13.8683 16.9947C13.8766 17.0003 13.9133 17.0237 13.9133 17.0237C13.9566 17.0508 14.0266 17.0926 14.1233 17.1444C14.3165 17.2479 14.6163 17.3913 15.0227 17.5364C15.8344 17.8263 17.076 18.125 18.75 18.125C19.0952 18.125 19.375 18.4048 19.375 18.75C19.375 19.0952 19.0952 19.375 18.75 19.375C16.924 19.375 15.5406 19.0487 14.6023 18.7136C14.1337 18.5462 13.7772 18.3771 13.533 18.2462L13.5276 18.2433C12.837 18.7087 11.6505 19.375 10 19.375C8.33282 19.375 7.13903 18.6952 6.45161 18.2293C5.5179 18.6957 3.83329 19.375 1.25 19.375C0.904819 19.375 0.624997 19.0952 0.624997 18.75C0.624997 18.4048 0.904819 18.125 1.25 18.125C3.91083 18.125 5.47945 17.3377 6.20486 16.9491Z" fill="#000000"/>
</svg>

<svg xmlns="http://www.w3.org/2000/svg" width="20" height="20"><path fill-rule="evenodd" d="M6.84.804 6.5 2.5h-3a1 1 0 0 0-1 1v4.893l-1.58.451a.99.99 0 0 0-.691 1.192c.46 1.82 1.163 4.356 1.701 5.571-.218.012-.445.018-.68.018a.625.625 0 1 0 0 1.25c2.583 0 4.268-.68 5.202-1.146.687.466 1.88 1.146 3.548 1.146 1.65 0 2.837-.666 3.528-1.132l.005.003c.244.131.6.3 1.07.468.938.335 2.321.661 4.147.661a.625.625 0 1 0 0-1.25c-.323 0-.63-.011-.922-.031a.996.996 0 0 0 .184-.334l1.67-5.168a1 1 0 0 0-.677-1.27l-1.505-.43V3.5a1 1 0 0 0-1-1h-3L13.16.804A1 1 0 0 0 12.18 0H7.82a1 1 0 0 0-.98.804ZM5 7.679l3.75-1.072V5H5v2.679Zm6.25-1.072L15 7.68V5h-3.75v1.607ZM6.205 16.95a.625.625 0 0 1 .658.042c.569.407 1.597 1.134 3.137 1.134s2.568-.727 3.137-1.134a.625.625 0 0 1 .724-.001l.007.005.045.029c.044.027.114.069.21.12.194.104.493.247.9.392.811.29 2.053.589 3.727.589a.625.625 0 1 1 0 1.25c-1.826 0-3.21-.326-4.148-.661a7.894 7.894 0 0 1-1.069-.468l-.005-.003c-.691.466-1.878 1.132-3.528 1.132-1.667 0-2.861-.68-3.548-1.146-.934.467-2.619 1.146-5.202 1.146a.625.625 0 1 1 0-1.25c2.66 0 4.23-.787 4.955-1.176Z" clip-rule="evenodd"/></svg>
